<?xml version="1.0" encoding="UTF-8"?>
<map version="1.10" tiledversion="1.11.2" orientation="orthogonal" renderorder="right-down" width="99" height="46" tilewidth="16" tileheight="16" infinite="0" nextlayerid="3" nextobjectid="1">
 <tileset firstgid="1" source="tiles/mansion_outer.tsx"/>
 <tileset firstgid="16" source="tiles/mansion_walls.tsx"/>
 <tileset firstgid="5332" source="tiles/mansion_outdoors.tsx"/>
 <layer id="1" name="Scene" width="99" height="46" offsetx="0.378788" offsety="0.333333">
  <data encoding="csv">
5343,5343,5343,5343,5343,5343,5343,5343,5343,5343,5343,5343,5343,5343,5343,5343,5343,5343,5343,2684359903,2684359903,2684359903,2684359903,2684359903,2684359903,2684359903,2684359903,2684359903,2684359903,2684359903,2684359903,2684359903,2684359903,2684359903,2684359903,2684359903,2684359903,2684359903,2684359903,2684359903,2684359903,5343,5335,5343,5343,5343,5343,5343,5343,5343,5343,5343,5343,5343,5343,5343,5343,5343,5343,5343,5343,5343,5343,5343,5343,5343,5343,5343,5343,5343,5343,5343,5343,5343,5343,5343,5343,5343,5343,5343,5343,5343,5343,5343,5343,5343,5343,5343,5343,5343,5343,5343,5343,5343,5343,5343,5343,5343,2684359903,
5343,5343,5343,5343,5343,5343,5343,5343,5343,5343,5343,5343,5343,5343,5343,5343,5343,5343,5343,2684359903,2684359903,2684359903,2684359903,2684359903,2684359903,2684359903,2684359903,2684359903,2684359903,2684359903,2684359903,2684359903,2684359903,2684359903,2684359903,2684359903,2684359903,2684359903,2684359903,2684359903,2684359903,2684359903,5343,5343,5343,5343,5343,5343,5343,5343,5343,5343,5343,5343,5343,5343,5343,5343,5343,5343,5343,5343,5335,5343,5343,5343,5343,5343,5343,5343,5343,5343,5343,5343,5355,5343,5343,5343,5343,5343,5343,5343,5343,5343,5343,5343,5343,5343,5343,5343,5343,5343,5343,5343,5343,5355,5343,5343,2684359903,
5356,5343,5343,5343,5343,5343,5343,5356,5343,5343,5343,5343,5343,5343,5343,5343,5343,5343,5343,5341,5348,5348,5348,5348,5348,5348,5348,5348,5348,5348,5348,5348,5348,5348,5348,5348,5348,5348,5348,5348,5350,2684359903,5343,5343,5343,5343,5343,5343,5343,5343,5343,5343,5343,5343,5343,5343,5343,5343,5343,5343,5343,5343,5343,5343,5343,5343,5343,5343,5343,5343,5343,5343,5356,5343,5343,5343,5343,5343,5343,5343,5343,5343,5343,5343,5343,5343,5343,5343,5355,5343,5343,5343,5343,5343,5343,5343,5343,5343,2684359903,
5343,5343,5343,5343,5336,5343,5343,5343,5343,5343,5343,5343,5343,5343,5343,5343,5343,5343,5343,5344,5332,5332,5332,5332,5332,5332,5332,5332,5332,5332,5332,5332,5332,5332,5332,5332,5332,5332,5332,5332,5342,2684359903,5343,5343,5343,5343,5343,5335,5343,5343,5343,5343,5343,5355,5343,5343,5343,5343,5343,5343,5343,5343,5343,5343,5343,5343,5343,5343,5343,5343,5343,5343,5343,5343,5343,5343,5343,5343,5343,5343,5343,5343,5343,5343,5343,5343,5343,5343,5343,5343,5343,5343,5343,5343,5343,5343,5343,5343,2684359903,
5343,5343,5343,5343,5343,5343,5343,5343,5335,5343,5343,5343,5343,5343,5343,5343,5343,5343,5343,5344,5332,5332,5332,5332,5332,5332,5332,5332,5332,5332,5332,5332,5332,5332,5332,5332,5332,5332,5332,5332,5342,2684359903,5343,5343,5343,5343,5343,5343,5343,5343,5343,5343,5343,5343,5343,5343,5343,5343,5343,5343,5343,5343,5343,5343,5343,5343,5343,5343,5343,5343,5343,5343,5343,5343,5343,5343,5343,5343,5343,5343,5335,5343,5343,5343,5343,5343,5343,5343,5343,5343,5343,5343,5343,5343,5343,5343,5343,5343,2684359903,
5336,5343,5343,5343,5343,5343,5343,5343,5343,5343,5343,5343,5343,5343,5343,5343,5343,5343,5343,5344,5332,5332,5337,5338,5338,5338,5338,5338,5338,5338,5338,5338,5338,5338,5338,5338,5338,5339,5332,5332,5342,2684359903,5343,5343,5343,5343,5343,5343,5343,5343,5343,5343,5343,5343,5343,5343,5343,5343,5343,2684359903,5,12,12,12,12,12,12,12,12,12,12,12,12,12,4,5343,5343,5343,5343,5343,5343,5343,5343,5343,5343,5343,5343,5343,5343,5343,5343,5343,5343,5343,5343,5343,5343,5343,2684359903,
5343,5343,5343,5343,5343,5343,5343,5343,5343,5343,5336,5343,5343,5356,5343,5343,5343,5343,5343,5344,5332,5332,5347,5348,5348,5348,5348,5348,5348,5348,5348,5348,5348,5348,5348,5348,5348,5349,5332,5332,5342,2684359903,5343,5343,5343,5343,5343,5343,5343,5343,5343,5343,5343,5343,5343,5343,5343,5343,5343,2684359903,8,1,2,2,2,3,1,2,2,2,2,2,2,3,6,5343,5343,5343,5343,5343,5343,5343,5343,5343,5343,5343,5343,5343,5343,5343,5343,5343,5343,5343,5343,5343,5343,5343,2684359903,
5343,5343,5343,5343,5343,5343,5343,5343,5343,5343,5343,5343,5343,5343,5343,5343,5343,5343,5343,5344,5332,5332,5332,5332,23,5332,5332,5332,5333,5332,5332,5332,5332,5332,5332,5332,5332,5332,5332,5332,5342,2684359903,5343,5356,5343,5343,5343,5343,5343,5343,5343,5343,5343,5343,5343,5343,5343,5343,5343,2684359903,8,6,25,19,20,10,9,16,16,16,16,16,16,8,6,5343,5343,5343,5343,5343,5343,5343,5343,5343,5343,5343,5343,5343,5343,5355,5343,5343,5343,5343,5343,5343,5343,5343,2684359903,
5343,5343,5343,5343,5343,5336,5343,5343,5343,5343,5343,5343,5343,5343,5343,5343,5343,5343,5343,5344,5332,5332,5332,5332,23,5332,5332,5332,5333,5332,5332,5332,5332,5332,5332,5332,5332,5332,5332,5332,5342,2684359903,5343,5335,5343,5343,5343,5343,5343,5343,5343,5343,5343,5343,5343,5343,5343,5343,5343,2684359903,8,6,24,24,24,25,20,23,23,23,23,23,23,8,6,5343,5343,5343,5343,5343,5343,5343,5343,5343,5343,5343,5343,5343,5343,5343,5343,5343,5343,5343,5343,5343,5343,5343,2684359903,
5343,5343,5343,5356,5343,5343,5343,5343,5343,5343,5343,5335,5343,5343,5343,5343,5343,5343,5343,5346,5338,5338,5338,5338,5338,5338,5338,5338,5339,5332,5332,5337,5338,5338,5338,5338,5338,5338,5338,5338,5345,2684359903,5343,5343,5343,5343,5343,5343,5343,5343,5336,5343,5343,5343,5343,5343,5343,5343,5355,2684359903,8,6,24,24,24,24,24,23,23,23,23,23,23,8,6,5343,5343,5343,5343,5343,5343,5343,5343,5343,5343,5343,5343,5343,5343,5343,5343,5343,5343,5343,5343,5335,5343,5343,5343,
5343,5343,5343,5343,5343,5343,5343,5343,5343,5343,5343,5343,5343,5343,5343,5343,5343,5343,5343,2684359903,2684359903,2684359903,2684359903,2684359903,2684359903,2684359903,2684359903,2684359903,5344,5332,5332,5342,2684359903,2684359903,2684359903,2684359903,2684359903,5343,2684359903,2684359903,2684359903,2684359903,5343,5343,5343,5343,5343,5343,5343,5343,5343,5343,5343,5343,5343,5343,2684359903,2684359903,2684359903,2684359903,8,6,24,24,24,5,4,23,23,23,23,23,23,8,6,5343,5343,5343,5343,5343,5343,5343,5343,5343,5355,5343,5343,5343,5343,5343,5343,5343,5343,5343,5343,5343,5343,5343,5343,
5343,5343,5343,5343,5356,5343,5343,5343,5343,5343,5343,5343,5343,5343,5343,5343,5343,5343,5343,5343,5343,5343,5343,5343,5343,5343,5343,2684359903,5344,5332,5332,5342,5343,5343,5343,5343,5343,2684359903,2684359903,2684359903,2684359903,2684359903,2684359903,2684359903,2684359903,2684359903,2684359903,2684359903,2684359903,2684359903,2684359903,2684359903,2684359903,2684359903,2684359903,2684359903,2684359903,5,12,12,13,11,12,12,12,13,6,23,23,23,23,23,23,8,6,5343,5343,5343,5343,5343,5343,5343,5356,5343,5343,5343,5343,5343,5343,5343,5343,5343,5343,5343,5343,5343,5343,5343,5343,
5343,5343,5343,5343,5343,5343,5343,5343,5343,5343,5343,5343,5343,5343,5343,5343,5343,5355,5343,5356,5343,5343,5343,5343,5343,5343,5343,2684359903,5344,5332,5332,5342,5343,5343,5343,5343,5343,2684359903,2684359903,2684359903,2684359903,2684359903,2684359903,2684359903,2684359903,2684359903,2684359903,2684359903,2684359903,2684359903,2684359903,2684359903,2684359903,2684359903,2684359903,2684359903,2684359903,8,1,2,2,2,2,2,2,3,6,23,23,23,23,23,23,8,6,5343,5343,5343,5343,5343,5343,5343,5343,5343,5343,5343,5343,5343,5343,5343,5343,5343,5343,5343,5343,5343,5343,5343,5343,
5343,5343,5343,5343,5343,5335,5343,5343,5343,5343,5343,5343,5343,5355,5343,5335,5343,5343,5343,5343,5343,5343,5343,5343,5343,5343,5343,2684359903,5344,5332,5332,5342,5343,5355,5343,5343,5356,2684359903,5341,5348,5348,5348,5348,5348,5348,5348,5348,5348,5348,5348,5348,5348,5348,5348,5348,5340,5343,8,6,16,16,16,16,16,16,10,9,23,23,23,23,23,23,8,6,5343,5343,5343,5343,5343,5343,5343,5343,5343,5343,5343,5343,5343,5343,5343,5343,5343,5343,5343,5343,5343,5343,5343,5343,
5343,5343,5343,5343,5343,5343,5343,5343,5343,5343,5343,5343,5343,5343,5343,5343,5343,5335,5343,5343,5343,5343,5343,5343,5343,5343,5343,2684359903,5344,5332,5332,5342,5343,5343,5343,5343,5343,2684359903,5344,5352,5353,5353,5353,5353,5353,5353,5353,5353,5353,5353,5353,5353,5353,5353,5354,5342,5343,8,6,23,23,23,23,23,23,18,17,23,23,23,23,23,23,8,6,5343,5343,5343,5343,5343,5343,5343,5343,5343,5343,5343,5335,5343,5343,5343,5343,5343,5343,5343,5343,5343,5343,5343,5343,
5343,5343,5343,5343,5343,5343,5343,5343,5343,5343,5343,5343,5343,5343,5343,5335,5343,5343,5343,5343,5343,5343,5343,5335,5343,5343,5343,2684359903,5344,5332,5332,5342,5343,5343,5343,5343,5343,2684359903,5344,5357,5358,5358,5358,5358,5358,5358,5358,5358,5358,5358,5358,5358,5358,5358,5359,5342,5343,8,6,23,23,23,23,23,23,23,23,23,23,23,23,23,23,8,6,5343,5343,5343,5343,5343,5343,5343,5343,5343,5343,5343,5343,5343,5343,5343,5343,5343,5343,5343,5343,5343,5343,5343,5343,
5343,5343,5343,5343,5343,5343,5343,5343,5343,5343,5343,5343,5343,5343,5343,5343,5343,5343,5343,5343,5343,5343,5343,5343,5343,5336,5343,2684359903,5344,5332,5332,5342,5343,5343,5343,5343,5343,2684359903,5344,5357,5358,5358,5358,5358,5358,5358,5358,5358,5358,5358,5358,5358,5358,5358,5359,5342,5343,8,6,23,23,23,23,23,23,5,4,23,23,23,23,23,23,8,6,5343,5355,5343,5343,5343,5343,5343,5343,5343,5343,5343,5343,5343,5343,5343,5343,5343,5343,5355,5343,5343,5343,5343,5343,
5,12,12,12,12,12,12,12,12,12,12,12,12,12,12,12,12,4,5343,5356,5343,5343,5343,5336,5343,5343,5343,5343,5344,5332,5332,5342,5343,5343,5343,5343,5343,2684359903,5344,5357,5358,5358,5358,5358,5358,5358,5358,5358,5358,5358,5358,5358,5358,5358,5359,5342,5343,8,6,23,23,23,23,23,23,8,6,23,23,23,23,23,23,8,6,2684359903,2684359903,2684359903,2684359903,2684359903,2684359903,2684359903,2684359903,2684359903,2684359903,2684359903,2684359903,2684359903,2684359903,2684359903,2684359903,5343,5343,5343,5343,5343,5343,5343,5343,
8,1,2,2,2,2,2,2,2,2,2,2,2,2,2,2,3,6,5343,5335,5343,5343,5343,5343,5343,5343,5343,5343,5344,5332,5332,5347,5348,5348,5348,5348,5348,5348,5349,5357,5358,5358,5358,5358,5358,5358,5358,5358,5358,5358,5358,5358,5358,5358,5359,5342,5343,8,11,12,12,12,12,12,12,13,11,12,4,23,23,5,12,13,11,12,12,12,12,12,12,12,12,12,12,12,12,12,12,12,4,5343,5343,5343,5343,5343,5343,5343,5356,
8,6,25,19,19,19,19,19,19,19,19,19,19,19,19,20,8,6,5343,5343,5343,5343,5343,5343,5343,5343,5343,5343,5344,5332,5333,5333,5333,5333,5333,5333,5333,5333,5333,5357,5358,5358,5358,5358,5358,5358,5358,5358,5358,5358,5358,5358,5358,5358,5359,5342,5343,8,1,2,2,2,2,2,2,2,2,2,9,22,22,10,2,3,1,2,2,2,2,2,2,2,2,2,2,2,2,2,2,3,6,5343,5343,5343,5343,5343,5343,5343,5343,
8,6,24,24,24,24,24,24,24,24,24,24,24,24,24,24,8,6,5343,5343,5343,5343,5343,5343,5343,5343,5343,5343,5344,5332,5332,5333,5333,5333,5333,5333,5333,5333,5333,5357,5358,5358,5358,5358,5358,5358,5358,5358,5358,5358,5358,5358,5358,5358,5359,5342,5343,8,6,16,16,16,16,16,16,16,16,16,17,22,22,18,16,8,6,16,16,16,16,16,16,16,16,16,16,16,16,16,16,8,6,5343,5343,5343,5343,5343,5343,5343,5343,
8,6,24,24,24,24,24,24,24,24,24,24,24,24,24,24,8,6,5343,5343,5343,5343,5343,5343,5343,5343,5343,5343,5344,5332,5332,5337,5338,5338,5338,5338,5338,5338,5339,5357,5358,5358,5358,5358,5358,5358,5358,5358,5358,5358,5358,5358,5358,5358,5359,5342,5343,8,6,22,22,22,22,22,22,22,22,22,22,22,22,22,22,8,6,21,21,21,21,21,21,21,21,21,21,21,21,21,21,8,6,5343,5343,5343,5343,5343,5343,5343,5343,
8,6,24,24,24,24,24,24,24,24,24,24,24,24,24,24,8,6,5343,5343,5356,5343,5343,5343,5336,5343,5343,5343,5344,5332,5332,5342,5343,5343,5343,5343,5343,5343,5344,5357,5358,5358,5358,5358,5358,5358,5358,5358,5358,5358,5358,5358,5358,5358,5359,5342,5343,8,6,22,22,22,22,22,22,22,22,22,22,22,22,22,22,8,6,21,21,21,21,21,21,21,21,21,21,21,21,21,21,8,6,5343,5343,5343,5343,5343,5343,5343,5343,
8,6,24,24,24,24,24,24,24,24,24,24,24,24,24,24,8,6,5343,5343,5343,5343,5343,5343,5343,5343,5356,5343,5344,5332,5332,5342,5343,5343,5355,5343,5343,5343,5344,5357,5358,5358,5358,5358,5358,5358,5358,5358,5358,5358,5358,5358,5358,5358,5359,5342,5343,8,6,22,22,22,22,22,22,22,22,22,22,22,22,22,22,10,9,21,21,21,21,21,21,21,21,21,21,21,21,21,21,8,6,5343,5343,5343,5356,5343,5343,5343,5343,
8,6,24,24,24,24,24,24,24,24,24,24,24,24,24,24,8,6,5343,5343,5343,5343,5343,5343,5343,5343,5343,5343,5344,5332,5332,5342,5343,5343,5343,5343,5343,5343,5344,5357,5358,5358,5358,5358,5358,5358,5358,5358,5358,5358,5358,5358,5358,5358,5359,5342,5343,8,6,22,22,22,22,22,22,22,22,22,22,22,22,22,22,18,17,21,21,21,21,21,21,21,21,21,21,21,21,21,21,8,6,5343,5343,5343,5343,5343,5343,5343,5343,
8,11,4,24,24,5,12,12,12,12,12,12,12,12,12,12,13,6,5343,5335,5343,5343,5343,5343,5343,5343,5343,5343,5344,5332,5332,5342,5343,5343,5343,5343,5343,5343,5344,5362,5363,5363,5363,5363,5363,5363,5363,5363,5363,5363,5363,5363,5363,5363,5364,5342,5343,8,6,22,22,22,22,22,22,22,22,22,22,22,22,22,22,21,21,21,21,21,21,21,21,21,21,21,21,21,21,21,21,8,6,5343,5343,5343,5343,5343,5343,5343,5343,
8,1,9,21,21,10,2,2,2,2,2,2,2,2,2,2,3,6,5343,5343,5343,5343,5343,5343,5343,5343,5343,5343,5344,5332,5332,5342,5343,5335,5343,5343,5343,5343,5346,5338,5338,5338,5338,5338,5338,5338,5338,5338,5338,5338,5338,5338,5338,5338,5338,5345,5343,8,6,22,22,22,22,22,22,22,22,22,22,22,22,22,22,5,4,21,21,21,21,21,21,21,21,21,21,21,21,21,21,8,6,5343,5343,5343,5343,5343,5343,5343,5343,
8,6,17,21,21,18,16,16,16,16,16,16,16,16,16,16,8,6,5343,5343,5343,5343,5343,5343,5343,5343,5343,5343,5344,5332,5332,5342,5343,5343,5343,5343,5343,5343,5343,5343,5343,5343,5343,5343,5343,5343,5343,5343,5343,5343,5343,5343,5343,5343,5343,5343,5343,8,6,22,22,22,22,22,22,22,22,22,22,22,22,22,22,8,6,21,21,21,21,21,21,21,21,21,21,21,21,21,21,8,6,5343,5343,5343,5343,5343,5343,5343,5343,
8,6,21,21,21,21,21,21,21,21,21,21,21,21,21,21,8,11,12,12,12,12,12,12,12,12,12,12,4,22,22,5,12,12,12,12,12,12,12,12,12,12,12,12,12,12,12,12,12,12,12,12,12,12,12,12,12,13,6,22,22,22,22,22,22,22,22,22,22,22,22,22,22,8,11,12,12,12,12,12,12,12,12,12,4,21,21,5,12,13,6,5343,5355,5343,5343,5343,5343,5343,5343,
8,6,21,21,21,21,21,21,21,21,21,21,21,21,21,21,8,1,2,2,2,2,2,2,2,2,2,2,9,22,22,10,2,2,2,2,2,2,2,2,2,3,1,2,2,2,2,2,2,2,2,2,2,2,2,2,2,3,6,22,22,22,22,22,22,22,22,22,22,22,22,22,22,8,1,2,2,2,2,2,2,2,2,2,9,21,21,10,2,3,6,5343,5343,5343,5343,5343,5343,5343,5343,
8,6,21,21,21,21,21,21,21,21,21,21,21,21,21,21,8,6,16,16,16,16,16,16,16,16,16,16,17,22,22,18,16,16,16,16,16,16,16,16,16,8,6,16,16,16,16,16,16,16,16,16,16,16,16,16,16,8,6,22,22,22,22,22,22,22,22,22,22,22,22,22,22,8,6,16,16,16,16,16,16,16,16,16,17,21,21,18,16,8,6,5343,5343,5343,5356,5343,5343,5343,5343,
8,6,21,21,21,21,21,21,21,21,21,21,21,21,21,21,10,9,22,22,22,22,22,22,22,22,22,22,22,22,22,22,22,22,22,22,22,22,22,22,22,10,9,22,22,22,22,22,22,22,22,22,22,22,22,22,22,8,6,22,22,22,22,22,22,22,22,22,22,22,22,22,22,8,6,21,21,21,21,21,21,21,21,21,21,21,21,21,21,8,6,2684359903,2684359903,2684359903,2684359903,2684359903,2684359903,2684359903,2684359903,
8,6,21,21,21,21,21,21,21,21,21,21,21,21,21,21,18,17,22,22,22,22,22,22,22,22,22,22,22,22,22,22,22,22,22,22,22,22,22,22,22,18,17,22,22,22,22,22,22,22,22,22,22,22,22,22,22,8,6,22,22,22,22,22,22,22,22,22,22,22,22,22,22,8,6,21,21,21,21,21,21,21,21,21,21,21,21,21,21,8,11,12,12,12,12,12,12,12,4,
8,6,21,21,21,21,21,21,21,21,21,21,21,21,21,21,21,21,22,22,22,22,22,22,22,22,22,22,22,22,22,22,22,22,22,22,22,22,22,22,22,22,22,22,22,22,22,22,22,22,22,22,22,22,22,22,22,8,6,22,22,22,22,22,22,22,22,22,22,22,22,22,22,8,6,21,21,21,21,21,21,21,21,21,21,21,21,21,21,8,1,2,2,2,2,2,2,3,6,
8,6,21,21,21,21,21,21,21,21,21,21,21,21,21,21,5,4,22,22,22,22,22,22,22,22,22,22,22,22,22,22,22,22,22,22,22,22,22,22,22,5,4,22,22,22,22,22,22,22,22,22,22,22,22,22,22,8,6,22,22,22,22,22,22,22,22,22,22,22,22,22,22,8,6,21,21,21,21,21,21,21,21,21,21,21,21,21,21,8,6,16,16,16,16,16,16,8,6,
8,6,21,21,21,21,21,21,21,21,21,21,21,21,21,21,8,6,22,22,22,22,22,22,22,22,22,22,22,22,22,22,22,22,22,22,22,22,22,22,22,8,6,22,22,22,22,22,22,22,22,22,22,22,22,22,22,8,6,22,22,22,22,22,22,22,22,22,22,22,22,22,22,8,6,21,21,21,21,21,21,21,21,21,21,21,21,21,21,8,6,23,23,23,23,23,23,8,6,
8,6,21,21,21,21,21,21,21,21,21,21,21,21,21,21,8,6,22,22,22,22,22,22,22,5,12,12,4,22,22,5,12,12,12,12,12,12,12,12,12,13,6,22,22,22,22,22,22,22,22,22,22,22,22,22,22,8,11,12,4,22,22,5,12,12,12,12,12,12,12,12,12,13,11,12,4,21,21,5,12,12,12,12,12,12,12,12,12,13,6,23,23,23,23,23,23,8,6,
8,6,21,21,21,21,21,21,21,21,21,21,21,21,21,21,8,6,22,22,22,22,22,22,22,8,1,2,9,22,22,10,2,2,2,2,2,2,2,2,2,3,6,22,22,22,22,22,22,22,22,22,22,22,22,22,22,8,1,2,9,22,22,10,2,2,2,2,2,2,2,2,2,2,2,2,9,21,21,10,2,2,2,2,2,2,2,2,2,3,6,23,23,23,23,23,23,8,6,
8,6,21,21,21,21,21,21,21,21,21,21,21,21,21,21,8,6,22,22,22,22,22,22,22,8,6,16,17,22,22,18,16,16,16,16,16,16,16,16,16,8,6,22,22,22,22,22,22,22,22,22,22,22,22,22,22,8,6,16,17,22,22,18,16,16,16,16,16,16,16,16,16,16,16,16,17,21,21,18,16,16,16,16,16,16,16,16,16,8,6,23,23,23,23,23,23,8,6,
8,6,21,21,21,21,21,21,21,21,21,21,21,21,21,21,8,6,22,22,22,22,22,22,22,8,6,22,22,22,22,22,22,22,22,22,22,22,22,22,22,10,9,22,22,22,22,22,22,22,22,22,22,22,22,22,22,10,9,22,22,22,22,22,22,22,22,22,22,22,22,22,22,22,22,22,22,22,22,22,22,22,22,22,22,22,22,22,22,10,9,23,23,23,23,23,23,8,6,
8,6,21,21,21,21,21,21,21,21,21,21,21,21,21,21,8,6,22,22,22,22,22,22,22,8,6,22,22,22,22,22,22,22,22,22,22,22,22,22,22,18,17,22,22,22,22,22,22,22,22,22,22,22,22,22,22,18,17,22,22,22,22,22,22,22,22,22,22,22,22,22,22,22,22,22,22,22,22,22,22,22,22,22,22,22,22,22,22,16,16,23,23,23,23,23,23,8,6,
8,6,21,21,21,21,21,21,21,21,21,21,21,21,21,21,8,6,22,22,22,22,22,22,22,8,6,22,22,22,22,22,22,22,22,22,22,22,22,22,22,22,22,22,22,22,22,22,22,22,22,22,22,22,22,22,22,22,22,22,22,22,22,22,22,22,22,22,22,22,22,22,22,22,22,22,22,22,22,22,22,22,22,22,22,22,22,22,22,23,23,23,23,23,23,23,23,8,6,
8,6,21,21,21,21,21,21,21,21,21,21,21,21,21,21,8,6,22,22,22,22,22,22,22,8,6,22,22,22,22,22,22,22,22,22,22,22,22,22,22,5,4,22,22,22,22,22,22,22,22,22,22,22,22,22,22,5,4,22,22,22,22,22,22,22,22,22,22,22,22,22,22,22,22,22,22,22,22,22,22,22,22,22,22,22,22,22,22,5,4,23,23,23,23,23,23,8,6,
8,6,21,21,21,21,21,21,21,21,21,21,21,21,21,21,8,6,22,22,22,22,22,22,22,8,6,22,22,22,22,22,22,22,22,22,22,22,22,22,22,8,6,22,22,22,22,22,22,22,22,22,22,22,22,22,22,8,6,22,22,22,22,22,22,22,22,22,22,22,22,22,22,22,22,22,22,22,22,22,22,22,22,22,22,22,22,22,22,8,6,23,23,23,23,23,23,8,6,
8,11,12,12,12,12,12,12,12,12,12,12,12,12,12,12,13,11,12,12,12,12,12,12,12,13,11,12,12,12,12,12,12,12,12,12,12,12,12,12,12,13,11,12,12,12,12,12,12,7,7,12,12,12,12,12,12,13,11,12,12,12,12,12,12,12,12,12,12,12,12,12,12,12,12,12,12,12,12,12,12,12,12,12,12,12,12,12,12,13,11,12,12,12,12,12,12,13,6,
10,2,2,2,2,2,2,2,2,2,2,2,2,2,2,2,2,2,2,2,2,2,2,2,2,2,2,2,2,2,2,2,2,2,2,2,2,2,2,2,2,2,2,2,2,2,2,2,2,2,2,2,2,2,2,2,2,2,2,2,2,2,2,2,2,2,2,2,2,2,2,2,2,2,2,2,2,2,2,2,2,2,2,2,2,2,2,2,2,2,2,2,2,2,2,2,2,2,9
</data>
 </layer>
</map>
